**kern	**kern	**dynam
*part1	*part1	*part1
*staff2	*staff1	*
*I"Piano	*	*
*clefF4	*clefG2	*
*k[b-e-]	*k[b-e-]	*
=1	=1	=1
(4BB- 4B-	(4d 4b-	.
4c	4e- 4an	.
4d)	4f) 4a-X	.
=||	=||	=||
*k[b-e-a-]	*k[b-e-a-]	*
4EE- 4E-	4r	p
4r	4B- 4e- 4g	.
4r	4B- 4e- 4g	.
=	=	=
4BBB- 4BB-	4r	.
4r	4B- 4e- 4g	.
4r	4B- 4e- 4g	.
=	=	=
4FF 4F	4r	.
4r	4B- 4d 4a-	.
4r	4B- 4d 4a-	.
=	=	=
4BBB- 4BB-	4r	.
4r	4B- 4d 4a-	.
4r	4B- 4d 4a-	.
=	=	=
4FF 4F	4r	.
4r	4B- 4d 4a-	.
4r	4B- 4d 4a-	.
=	=	=
4BBB- 4BB-	4r	.
4r	4B- 4d 4a-	.
4r	4B- 4d 4a-	.
=	=	=
*-	*-	*-
!!!system-decoration: {(s1,s2)}
